Icons and Attr/Dots/icon_27116.svg

<svg xmlns="http://www.w3.org/2000/svg" width="100" height="100" viewBox="0 0 100 100"><path d="M16 65c-8.271 0-15-6.729-15-15s6.729-15 15-15 15 6.729 15 15-6.729 15-15 15zm0-20c-2.757 0-5 2.243-5 5s2.243 5 5 5 5-2.243 5-5-2.243-5-5-5zM50.5 65c-8.271 0-15-6.729-15-15s6.729-15 15-15 15 6.729 15 15-6.729 15-15 15zm0-20c-2.757 0-5 2.243-5 5s2.243 5 5 5 5-2.243 5-5-2.243-5-5-5zM84 65c-8.271 0-15-6.729-15-15s6.729-15 15-15 15 6.729 15 15-6.729 15-15 15zm0-20c-2.757 0-5 2.243-5 5s2.243 5 5 5 5-2.243 5-5-2.243-5-5-5z"/></svg>

<svg xmlns="http://www.w3.org/2000/svg" xmlns:xlink="http://www.w3.org/1999/xlink" version="1.1" id="Your_Icon" x="0px" y="0px" width="100px" height="100px" viewBox="0 0 100 100" enable-background="new 0 0 100 100" xml:space="preserve"> <path d="M16,65C7.729,65,1,58.271,1,50c0-8.271,6.729-15,15-15s15,6.729,15,15C31,58.271,24.271,65,16,65z M16,45  c-2.757,0-5,2.243-5,5s2.243,5,5,5s5-2.243,5-5S18.757,45,16,45z"/> <path d="M50.5,65c-8.271,0-15-6.729-15-15c0-8.271,6.729-15,15-15c8.271,0,15,6.729,15,15C65.5,58.271,58.771,65,50.5,65z M50.5,45  c-2.757,0-5,2.243-5,5s2.243,5,5,5s5-2.243,5-5S53.257,45,50.5,45z"/> <path d="M84,65c-8.271,0-15-6.729-15-15c0-8.271,6.729-15,15-15s15,6.729,15,15C99,58.271,92.271,65,84,65z M84,45  c-2.757,0-5,2.243-5,5s2.243,5,5,5s5-2.243,5-5S86.757,45,84,45z"/> </svg>
